src/lib/packages/icons/src/assets/line/home-lock.svg

<svg width="24" height="24" viewBox="0 0 24 24" fill="none" xmlns="http://www.w3.org/2000/svg">
<path d="M20.208 8.14101L14.088 3.01003C12.879 1.99503 11.121 1.99503 9.91199 3.01003L3.79199 8.14101C2.83599 8.93401 2.25 9.52804 2.25 11.65V18C2.25 20.418 3.582 21.75 6 21.75H18C20.418 21.75 21.75 20.418 21.75 18V11.65C21.75 9.52804 21.164 8.93401 20.208 8.14101ZM20.25 18C20.25 19.577 19.577 20.25 18 20.25H6C4.423 20.25 3.75 19.577 3.75 18V11.65C3.75 10.124 4.00202 9.91506 4.74902 9.29506L10.875 4.15908C11.201 3.88608 11.601 3.74904 12 3.74904C12.399 3.74904 12.799 3.88608 13.125 4.15908L19.251 9.29506C19.998 9.91506 20.25 10.124 20.25 11.65V18ZM14.5 12.371V11.25C14.5 9.87202 13.379 8.75002 12 8.75002C10.621 8.75002 9.5 9.87202 9.5 11.25V12.371C8.707 12.629 8.25 13.302 8.25 14.286V16.215C8.25 17.489 9.01101 18.251 10.286 18.251H13.714C14.989 18.251 15.75 17.49 15.75 16.215V14.286C15.75 13.302 15.293 12.629 14.5 12.371ZM12 10.25C12.552 10.25 13 10.699 13 11.25V12.25H11V11.25C11 10.699 11.448 10.25 12 10.25ZM14.25 16.214C14.25 16.654 14.155 16.75 13.714 16.75H10.286C9.84501 16.75 9.75 16.655 9.75 16.214V14.2851C9.75 13.8451 9.84501 13.749 10.286 13.749H13.714C14.155 13.749 14.25 13.8441 14.25 14.2851V16.214Z" fill="currentColor"/>
</svg>

<svg xmlns="http://www.w3.org/2000/svg" width="24" height="24" fill="none"><path fill="currentColor" d="m20.208 8.141-6.12-5.131a3.244 3.244 0 0 0-4.176 0l-6.12 5.131c-.956.793-1.542 1.387-1.542 3.509V18c0 2.418 1.332 3.75 3.75 3.75h12c2.418 0 3.75-1.332 3.75-3.75v-6.35c0-2.122-.586-2.716-1.542-3.509ZM20.25 18c0 1.577-.673 2.25-2.25 2.25H6c-1.577 0-2.25-.673-2.25-2.25v-6.35c0-1.526.252-1.735.999-2.355l6.126-5.136a1.75 1.75 0 0 1 2.25 0l6.126 5.136c.747.62.999.829.999 2.355V18Zm-5.75-5.629V11.25c0-1.378-1.121-2.5-2.5-2.5a2.503 2.503 0 0 0-2.5 2.5v1.121c-.793.258-1.25.931-1.25 1.915v1.929c0 1.274.761 2.036 2.036 2.036h3.428c1.275 0 2.036-.761 2.036-2.036v-1.929c0-.984-.457-1.657-1.25-1.915ZM12 10.25c.552 0 1 .449 1 1v1h-2v-1c0-.551.448-1 1-1Zm2.25 5.964c0 .44-.095.536-.536.536h-3.428c-.441 0-.536-.095-.536-.536v-1.929c0-.44.095-.536.536-.536h3.428c.441 0 .536.095.536.536v1.929Z"/></svg>
